public/avatar/shoe/37.svg

<svg xmlns:xlink="http://www.w3.org/1999/xlink" height="38.3" width="36.05" xmlns="http://www.w3.org/2000/svg"><use height="15.3" transform="translate(8.35 12.2)" width="23" xlink:href="#a"/><defs><g id="a"><path d="M-6.65 1.25q2.9-3.15 5.95-3.4 1.8-.05 4.95 1.2l2.8 6.1q0 2.05-1.8 3-2 1.15-6 2.45-4.75 1.55-7.5 1.55-5.95 0-6.7-1.6-.25-.6 3.25-4.2l5.05-5.1" fill-rule="evenodd" transform="translate(15.45 2.65)"/><path d="M-6.65 1.2q2.9-3.1 5.95-3.35 1.8-.05 4.95 1.2l2.8 6.1q0 2.05-1.8 3-2 1.15-6 2.45-4.75 1.55-7.5 1.55-5.95 0-6.7-1.6-.25-.6 3.25-4.2l5.05-5.15Z" fill="none" stroke="#000" stroke-linecap="round" stroke-linejoin="round" transform="translate(15.45 2.65)"/><path d="M-2.95 1.15-8.4 6.6m-5.5 2.2 4.25 1.1" fill="none" stroke="#828282" stroke-linecap="round" stroke-linejoin="round" transform="translate(15.45 2.65)"/></g></defs></svg>

<?xml version="1.0" encoding="UTF-8" standalone="no"?>
<svg xmlns:xlink="http://www.w3.org/1999/xlink" height="38.3px" width="36.05px" xmlns="http://www.w3.org/2000/svg">
  <g transform="matrix(1.0, 0.0, 0.0, 1.0, 23.8, 14.85)">
    <use height="15.3" transform="matrix(1.0, 0.0, 0.0, 1.0, -15.45, -2.65)" width="23.0" xlink:href="#shape0"/>
  </g>
  <defs>
    <g id="shape0" transform="matrix(1.0, 0.0, 0.0, 1.0, 15.45, 2.65)">
      <path d="M-6.65 1.25 Q-3.75 -1.9 -0.7 -2.15 1.1 -2.2 4.25 -0.95 L7.05 5.15 Q7.05 7.2 5.25 8.15 3.25 9.3 -0.75 10.6 -5.5 12.15 -8.25 12.15 -14.2 12.15 -14.95 10.55 -15.2 9.95 -11.7 6.35 L-6.65 1.25" fill="#000000" fill-rule="evenodd" stroke="none"/>
      <path d="M-6.65 1.2 Q-3.75 -1.9 -0.7 -2.15 1.1 -2.2 4.25 -0.95 L7.05 5.15 Q7.05 7.2 5.25 8.15 3.25 9.3 -0.75 10.6 -5.5 12.15 -8.25 12.15 -14.2 12.15 -14.95 10.55 -15.2 9.95 -11.7 6.35 L-6.65 1.2 Z" fill="none" stroke="#000000" stroke-linecap="round" stroke-linejoin="round" stroke-width="1.0"/>
      <path d="M-2.95 1.15 L-8.4 6.6" fill="none" stroke="#828282" stroke-linecap="round" stroke-linejoin="round" stroke-width="1.0"/>
      <path d="M-13.9 8.8 L-9.65 9.9" fill="none" stroke="#828282" stroke-linecap="round" stroke-linejoin="round" stroke-width="1.0"/>
    </g>
  </defs>
</svg>
